!!!SOCIAL_FUNCTION:	bird dance songs
!!!PDT:	1956
!!!OTL: No_87_Bird_Dance_Song_(j).krn
!!!LANG: Non-Tone
!!!LING_GROUP: Muskogean
!!!REG: Florida
**kern
*staff1
=1-
=
*clefF4
*k[b-e-]
*M2/4
8.c\L
16c\Jk
8.c\L
16c\Jk
=2
4c\
4c\
=3
8.B-\L
16G\Jk
8.G\L
16G\Jk
=4
4c\
4G\
=5
8.F\L
16F\Jk
8.F\L
16F\Jk
=6||
*M5/8
(8G\L
8F\J)
4F\
8F\
=7
8.B-\L
16G\K
8.B-\
[16G\K
8G\J]
=8||
*M2/4
2F\
=9
12G\L
12F\
12F\J
4F\
=10||
*M3/4
12B-\L
[12G\
12G\J]
12B-\L
[12G\
12G\J]
8F\
8r
=11
8.F\L
16F\Jk
8.F\L
16F\Jk
8.F\L
16F\Jk
=12||
*M2/4
(12G\L
12F\)
12F\J
4F\
=13
(12G\L
12F\)
12F\J
4F\
=14
12B-\L
[12G\
12G\J]
12B-\L
[12G\
12G\J]
=15
4.F\
8r
==:|!
*-
